src/assets/svg/ciseaux.svg

<svg width="102" height="100" viewBox="0 0 102 100" fill="none" xmlns="http://www.w3.org/2000/svg">
<path d="M86.1292 95L51.0011 60L39.2081 71.75C39.8775 73 40.3372 74.333 40.5881 75.75C40.839 77.167 40.9645 78.583 40.9645 80C40.9645 85.5 38.9993 90.208 35.068 94.125C31.1367 98.042 26.4114 100 20.8913 100C15.3712 100 10.6459 98.042 6.71461 94.125C2.78328 90.208 0.818115 85.5 0.818115 80C0.818115 74.5 2.78328 69.792 6.71461 65.875C10.6459 61.958 15.3712 60 20.8913 60C22.3135 60 23.7347 60.125 25.1569 60.375C26.579 60.625 27.9169 61.083 29.1715 61.75L40.9645 50L29.1715 38.25C27.9169 38.917 26.579 39.375 25.1569 39.625C23.7347 39.875 22.3135 40 20.8913 40C15.3712 40 10.6459 38.042 6.71461 34.125C2.78328 30.208 0.818115 25.5 0.818115 20C0.818115 14.5 2.78328 9.792 6.71461 5.875C10.6459 1.958 15.3712 0 20.8913 0C26.4114 0 31.1367 1.958 35.068 5.875C38.9993 9.792 40.9645 14.5 40.9645 20C40.9645 21.417 40.839 22.833 40.5881 24.25C40.3372 25.667 39.8775 27 39.2081 28.25L101.184 90V95H86.1292ZM66.056 45L56.0194 35L86.1292 5H101.184V10L66.056 45ZM20.8913 30C23.6514 30 26.014 29.021 27.9801 27.062C29.9453 25.104 30.9279 22.75 30.9279 20C30.9279 17.25 29.9453 14.896 27.9801 12.937C26.014 10.979 23.6514 10 20.8913 10C18.1312 10 15.7686 10.979 13.8034 12.937C11.8373 14.896 10.8547 17.25 10.8547 20C10.8547 22.75 11.8373 25.104 13.8034 27.062C15.7686 29.021 18.1312 30 20.8913 30ZM51.0011 52.5C51.6705 52.5 52.2557 52.25 52.7575 51.75C53.2593 51.25 53.5102 50.667 53.5102 50C53.5102 49.333 53.2593 48.75 52.7575 48.25C52.2557 47.75 51.6705 47.5 51.0011 47.5C50.3316 47.5 49.7465 47.75 49.2447 48.25C48.7428 48.75 48.4919 49.333 48.4919 50C48.4919 50.667 48.7428 51.25 49.2447 51.75C49.7465 52.25 50.3316 52.5 51.0011 52.5ZM20.8913 90C23.6514 90 26.014 89.021 27.9801 87.062C29.9453 85.104 30.9279 82.75 30.9279 80C30.9279 77.25 29.9453 74.896 27.9801 72.937C26.014 70.979 23.6514 70 20.8913 70C18.1312 70 15.7686 70.979 13.8034 72.938C11.8373 74.896 10.8547 77.25 10.8547 80C10.8547 82.75 11.8373 85.104 13.8034 87.063C15.7686 89.021 18.1312 90 20.8913 90Z" fill="black"/>
</svg>

<svg width="100%" height="100%" viewBox="0 0 102 100" version="1.1" xmlns="http://www.w3.org/2000/svg" xmlns:xlink="http://www.w3.org/1999/xlink" xml:space="preserve" xmlns:serif="http://www.serif.com/" style="fill-rule:evenodd;clip-rule:evenodd;stroke-linejoin:round;stroke-miterlimit:2;"><path id="ciseau-1" d="M40.965,50l10.036,10l-11.793,11.75c0.669,1.25 1.129,2.583 1.38,4c0.251,1.417 0.376,2.833 0.376,4.25c0,5.5 -1.965,10.208 -5.896,14.125c-3.931,3.917 -8.657,5.875 -14.177,5.875c-5.52,0 -10.245,-1.958 -14.176,-5.875c-3.932,-3.917 -5.897,-8.625 -5.897,-14.125c0,-5.5 1.965,-10.208 5.897,-14.125c3.931,-3.917 8.656,-5.875 14.176,-5.875c1.422,0 2.844,0.125 4.266,0.375c1.422,0.25 2.76,0.708 4.014,1.375l11.793,-11.75Zm25.092,-5l-10.037,-10l30.11,-30l15.055,0l-0,5l-35.128,35Zm-45.165,45c2.76,0 5.123,-0.979 7.089,-2.938c1.965,-1.958 2.948,-4.312 2.948,-7.062c-0,-2.75 -0.983,-5.104 -2.948,-7.063c-1.966,-1.958 -4.329,-2.937 -7.089,-2.937c-2.76,0 -5.122,0.979 -7.088,2.938c-1.966,1.958 -2.948,4.312 -2.948,7.062c-0,2.75 0.982,5.104 2.948,7.063c1.966,1.958 4.328,2.937 7.088,2.937Z" style="fill-rule:nonzero;"/><path id="ciseau-2" d="M86.129,95l-45.165,-45l-11.793,-11.75c-1.254,0.667 -2.592,1.125 -4.014,1.375c-1.422,0.25 -2.844,0.375 -4.266,0.375c-5.52,0 -10.245,-1.958 -14.176,-5.875c-3.932,-3.917 -5.897,-8.625 -5.897,-14.125c0,-5.5 1.965,-10.208 5.897,-14.125c3.931,-3.917 8.656,-5.875 14.176,-5.875c5.52,0 10.246,1.958 14.177,5.875c3.931,3.917 5.896,8.625 5.896,14.125c0,1.417 -0.125,2.833 -0.376,4.25c-0.251,1.417 -0.711,2.75 -1.38,4l61.976,61.75l0,5l-15.055,0Zm-65.238,-65c2.76,0 5.123,-0.979 7.089,-2.938c1.965,-1.958 2.948,-4.312 2.948,-7.062c-0,-2.75 -0.983,-5.104 -2.948,-7.063c-1.966,-1.958 -4.329,-2.937 -7.089,-2.937c-2.76,0 -5.122,0.979 -7.088,2.937c-1.966,1.959 -2.948,4.313 -2.948,7.063c-0,2.75 0.982,5.104 2.948,7.062c1.966,1.959 4.328,2.938 7.088,2.938Zm30.11,22.5c0.67,0 1.255,-0.25 1.757,-0.75c0.501,-0.5 0.752,-1.083 0.752,-1.75c0,-0.667 -0.251,-1.25 -0.752,-1.75c-0.502,-0.5 -1.087,-0.75 -1.757,-0.75c-0.669,0 -1.254,0.25 -1.756,0.75c-0.502,0.5 -0.753,1.083 -0.753,1.75c-0,0.667 0.251,1.25 0.753,1.75c0.502,0.5 1.087,0.75 1.756,0.75Z" style="fill-rule:nonzero;"/></svg>
